X:60
T: John Egan's
S: Sen Potts
Z: B.Black
R: hornpipe
M: 4/4
L: 1/8
K: G
dc|BGAF GEDG|BG (3Bcd gdBd|cdAd cdAd|fdef gedc |
BGAF GEDG|BG (3Bcd gdBd|cdef gedc|BGGF G2 :|
z2|(3ded ^ce dB G2|G3 B dgfg|efge dBGB|\
(3cBA (3BAG AGFD |
g3 e d2 Bd|g3 e dgfg|efge dcBA|(3GAG FA G2 :|
